X:1
T:Title
%%score { ( 1 3 ) | ( 2 4 ) }
L:1/8
M:3/4
K:Ab
V:1 treble nm="Grand Piano"
V:3 treble 
V:2 bass 
V:4 bass 
V:1
 z2 z2[Q:1/4=94] [A,C]>[B,D] | [CE]3 [Ec] [DB]>[Ec] | [CA] [CE]3 [CEA]>[A,EG] | %3
 [A,DF]3 [DFB] [DFA]>[A,DF] |[M:2/4][K:bass] [A,CE]4 |[M:1/4] [E,A,C]>[E,B,D] | %6
[M:3/4][K:treble] [CE]3 [Ec] [DB]>[Ec] | [CA] [Ec]3 [CEA]>[CEF] | [EG]3 [EB] [=DF]>[DB] | %9
[M:2/4] [EB]4 |[M:11/32] [Fd]/4-[Fd]/4-[Fd]/4-[Fd]/4-[Fd]/-<[Fd]/[Fd]3/4 | %11
[M:3/4] (7:8:8[Ec]3/4[CE]3/4-[CE]3/2-[CE]3/8F3/8-F-F/8A3/8 | %12
 (7:8:8E3/4A3/4-A3/2-A3/8[CA]3/8-[CA]-[CA]/8[EG]3/8 | %13
 (7:8:8[DF]3/4[DF]3/4-[DF]3/2-[DF]3/8[Fd]3/8-[Fd]-[Fd]/8[Ec]3/8 |[M:2/4] B4 |[M:1/4] (3:2:2A2 F | %16
[M:3/4] (7:8:8E3/4E3/4-E3/2-E3/8A3/8-A-A/8B3/8 | %17
 (7:8:8c3/4e3/4-e3/2-e3/8[Af]3/8-[Af]-[Af]/8[Af]3/8 | z2 z [Ec]- [Ec]/4 z/4 z/ z |[M:2/4] [CA]4 |] %20
V:2
 z2 z2 [A,,E,]>[A,,E,] | [A,,A,]3 [A,,A,] [E,G,]>[E,G,] | [A,,A,] [A,,A,]3 A,,>C, | D,3 D, D,>D, | %4
[M:2/4] A,,4 |[M:1/4] A,,>A,, |[M:3/4] [A,,A,]3 [A,,A,] [E,G,]>[E,G,] | [A,,E,] [A,,A,]3 A,,>A,, | %8
 [B,,B,]3 [B,,B,] [B,,A,]>[B,,A,] |[M:2/4] [E,G,]4 | %10
[M:11/32] [E,G,]/4-[E,G,]/4-[E,G,]/4-[E,G,]/4-[E,G,]/-<[E,G,]/[E,G,]3/4 | %11
[M:3/4] (7:8:8[A,,A,]3/4[A,,A,]3/4-[A,,A,]3/2-[A,,A,]3/8[D,A,D]3/8-[D,A,D]-[D,A,D]/8[F,A,D]3/8 | %12
 (7:8:8[A,C]3/4[A,C]3/4-[A,C]3/2-[A,C]3/8[A,,A,]3/8-[A,,A,]-[A,,A,]/8[C,A,]3/8 | %13
 (7:8:8[D,A,]3/4[D,A,]3/4-[D,A,]3/2-[D,A,]3/8[B,,B,]3/8-[B,,B,]-[B,,B,]/8[C,=A,]3/8 | %14
[M:2/4] [D,F,D]4 |[M:1/4] (3:2:2[=D,_C=D]2 [D,CD] | %16
[M:3/4] (7:8:8[E,C]3/4[E,A,C]3/4-[E,A,C]3/2-[E,A,C]3/8[E,CE]3/8-[E,CE]-[E,CE]/8[E,DE]3/8 | %17
 (7:8:8[A,EA]3/4[A,CA]3/4-[A,CA]3/2-[A,CA]3/8[D,D]3/8-[K:bass][D,D]-[D,D]/8[D,D]3/8 | %18
 z2 z [E,A,]- [E,A,]/4 z/4 z/ z |[M:2/4] [A,,E,A,]4 |] %20
V:3
 x6 | x6 | x6 | x6 |[M:2/4][K:bass] x4 |[M:1/4] x2 |[M:3/4][K:treble] x6 | x6 | x6 |[M:2/4] x4 | %10
[M:11/32] x11/4 |[M:3/4] x6 | x6 | x6 |[M:2/4] x4 |[M:1/4] x2 |[M:3/4] x6 | x6 | %18
 [Ae]3- [Ae]/4 z/4 z/ (3:2:2[DB]2 [CA] |[M:2/4] x4 |] %20
V:4
 x6 | x6 | x6 | x6 |[M:2/4] x4 |[M:1/4] x2 |[M:3/4] x6 | x6 | x6 |[M:2/4] x4 |[M:11/32] x11/4 | %11
[M:3/4] x6 | x6 | x6 |[M:2/4] x4 |[M:1/4] x2 |[M:3/4] x6 | x247/64[K:bass] x2 | %18
 [E,C]3- [E,C]/4 z/4 z/ (3:2:2[E,G,]2 [A,,A,] |[M:2/4] x4 |] %20

